packages/match-logos/color/svg/foursquare.svg

<svg fill="none" height="24" viewBox="0 0 193 24" width="193" xmlns="http://www.w3.org/2000/svg" xmlns:xlink="http://www.w3.org/1999/xlink"><clipPath id="a"><path d="m0 0h192.928v24h-192.928z"/></clipPath><g clip-path="url(#a)" fill="#0732a2"><path d="m55.3621.282124h-4.6151c-.0752-.002598-.1501.009863-.2204.036651s-.1346.067362-.189.119337c-.0544.051974-.0978.114297-.1278.183308-.0299.069011-.0458.143314-.0466.218541v11.795639c0 1.9135-.7849 2.919-2.5557 2.919s-2.5556-1.0184-2.5556-2.919v-11.795639c.0044-.075828-.0075-.151733-.035-.222545s-.0699-.134866-.1244-.187804c-.0544-.052938-.1197-.093514-.1912-.118965-.0716-.025451-.1478-.03518-.2235-.028523h-4.6216c-.0749-.002158-.1495.010629-.2195.037615-.0699.026986-.1337.06763-.1878.11956-.054.05193-.0972.114107-.1269.182898-.0298.068791-.0455.142819-.0464.217764v12.972939c0 4.0054 2.919 7.226 8.2768 7.226 5.4259 0 8.387-3.2206 8.387-7.226v-12.972939c-.0042-.149983-.067-.292346-.1749-.396609-.1079-.104262-.2523-.162135-.4024-.161228z"/><path d="m88.8065 8.5427-3.3405-1.16107c-.973-.35028-1.1028-.90163-1.1028-1.21947 0-.52216.493-1.04432 1.4822-1.04432 1.4956.0177 2.9431.53099 4.1157 1.45946.0486.0404.1049.07065.1654.08896s.124.02432.1869.01767.1238-.02582.1792-.05639c.0553-.03057.104-.07191.1431-.12159l2.5946-3.27243c.0808-.10351.1191-.23397.1071-.36475-.0121-.13079-.0736-.25205-.172-.33904-2.1924-1.858375-4.907-2.5070249-7.4205-2.5070249-4.8227 0-7.693 2.9902749-7.693 6.2432449 0 2.55243 1.4789 4.90705 4.6476 5.97725l2.9578 1.0184c1.453.493 1.6865.8725 1.6865 1.4822 0 .5513-.5838 1.187-1.7449 1.187-1.6216 0-3.5675-.973-4.8648-2.0594-.0463-.04-.1003-.07-.1586-.0882-.0583-.0183-.1197-.0244-.1805-.018-.0608.0063-.1196.0251-.1728.0551-.0533.03-.0998.0705-.1368.1192l-2.6627 3.4929c-.0786.1062-.1154.2376-.1035.3691.012.1316.0719.2542.1684.3444 1.9232 1.6671 4.7805 2.8995 8.3805 2.8995 4.5405 0 7.8097-2.614 7.8097-6.5611.0065-2.7178-1.6767-4.83889-4.8713-5.9416z"/><path d="m72.2303 13.0443c2.4616-1.2194 3.7362-3.13294 3.7362-5.97403 0-3.59675-2.8962-6.788104-7.7838-6.788104h-8.854c-.1451.014571-.2795.082893-.3767.191527s-.1503.249717-.1487.3955v19.242207c0 .1393.0553.2729.1538.3715.0986.0985.2322.1539.3716.1539h4.7773c.1393 0 .2729-.0554.3715-.1539.0985-.0986.1539-.2322.1539-.3715v-6.2271h1.8843l3.3762 6.2919c.0825.1336.196.2453.331.3255s.2874.1265.4441.1351h5.4714c.2919 0 .4086-.2044.2627-.4541zm-4.5827-4.0897h-3.0162v-3.53514h3.0162c1.68 0 2.3481.75243 2.3481 1.76757 0 1.01513-.6681 1.76757-2.3481 1.76757z"/><path d="m14.5167.282171h-13.868066c-.082529-.004365-.165094.007915-.24278.036109-.077685.028195-.148906.071728-.209424.12801-.060518.056281-.109096.12416-.1428444.199599-.0337483.07544-.05197714.156899-.05360163.239527v19.157884c-.00217752.0774.01125323.1545.03949263.2266.0282393.0722.0707094.1379.1248804.1933.054171.0553.118934.0993.190432.1291s.148269.0449.225737.0445h4.670264c.14503-.0169.27867-.0869.37511-.1965s.14883-.2511.14706-.397v-6.1849h5.92544c.1461-.0043.2868-.0565.4004-.1485.1137-.092.194-.2187.2287-.3607l.8952-4.24541c.019-.06365.0222-.13095.0096-.19615-.0127-.0652-.0409-.12638-.0823-.17831-.0414-.05192-.0948-.09307-.1556-.11991-.0607-.02685-.1271-.03861-.1933-.03427h-7.02814v-3.09082h7.78374c.1492-.00118.2939-.0518.4112-.14394.1174-.09214.2009-.22059.2375-.36525l.8367-4.005401c.0241-.080871.0287-.166284.0134-.249269-.0152-.082984-.0498-.161188-.1011-.228228-.0512-.067041-.1176-.121017-.1936-.157525-.0761-.036509-.1597-.054514-.2441-.052546z"/><path d="m191.426 5.48435c.146-.00434.287-.05649.4-.14847.114-.09198.194-.2187.229-.36072l.85-4.00865c.071-.347027 0-.684326-.5-.684326h-13.946c-.079-.001305-.159.013383-.232.043196-.074.029813-.142.074148-.198.130382-.057.056235-.101.123229-.132.197027-.03.073798-.045.152903-.044.23264v19.157871c-.002.0771.011.154.039.2259s.07.1375.124.1928.118.0993.189.1293c.072.0301.148.0455.225.0455h12.685c.145-.0042.286-.0559.399-.1472.114-.0913.194-.2173.23-.3588l.849-4.0119c.075-.347-.016-.6843-.499-.6843h-8.432v-2.3319h5.88c.146-.005.287-.0578.4-.1504.114-.0925.194-.2196.229-.362l.895-4.24865c.019-.0635.022-.13069.01-.19579-.013-.0651-.041-.12614-.083-.17786-.041-.05172-.095-.09256-.155-.119-.061-.02644-.128-.03768-.194-.03276h-6.973v-2.33189z"/><path d="m149.912.749192c-.045-.131906-.129-.247103-.24-.330456-.112-.083352-.246-.13096-.386-.13657h-6.343c-.14.00561-.274.053218-.386.13657-.111.083353-.195.19855-.24.330456l-5.838 19.391308c-.022.0556-.03.1156-.023.1749s.028.116.062.165c.034.0491.08.089.133.1163.053.0272.112.041.172.0401h5.215c.14-.013.274-.0673.384-.1562.109-.089.19-.2084.232-.3433l.827-2.9189h5.235l.898 2.9189c.045.1346.128.2532.239.3414.111.0881.246.1419.387.1548h5.189c.06.001.119-.0128.172-.0401.053-.0272.099-.0672.132-.1162.034-.0491.056-.1057.063-.165s-.001-.1194-.023-.1749zm-3.827 11.078908h-1.881l1.881-6.22377 1.888 6.22377z"/><path d="m134.851.282124h-4.615c-.076-.002598-.15.009863-.221.036651-.07.026788-.134.067362-.189.119337-.054.051974-.098.114297-.128.183308-.029.069011-.045.143314-.046.218541v11.795639c0 1.9135-.785 2.919-2.556 2.919s-2.555-1.0184-2.555-2.919v-11.795639c.004-.075828-.008-.151733-.035-.222545-.028-.070812-.07-.134866-.125-.187804-.054-.052938-.12-.093514-.191-.118965-.072-.025451-.148-.03518-.224-.028523h-4.621c-.075-.002158-.15.010629-.22.037615s-.133.06763-.187.11956-.098.114107-.127.182898c-.03.068791-.046.142819-.047.217764v12.972939c0 4.0054 2.919 7.226 8.274 7.226 5.429 0 8.39-3.2206 8.39-7.226v-12.972939c-.004-.149983-.067-.292346-.175-.396609-.108-.104262-.252-.162135-.402-.161228z"/><path d="m171.272 13.0443c2.462-1.2194 3.74-3.13294 3.74-5.97403 0-3.59675-2.9-6.788104-7.784-6.788104h-8.857c-.145.014571-.28.082893-.377.191527s-.15.249717-.149.3955v19.242207c0 .1393.056.2729.154.3715.099.0985.232.1539.372.1539h4.777c.139 0 .273-.0554.372-.1539.098-.0986.153-.2322.153-.3715v-6.2271h1.888l3.373 6.2919c.082.1336.196.2453.331.3255s.287.1265.444.1351h5.471c.292 0 .409-.2044.263-.4541zm-4.579-4.0897h-3.02v-3.53514h3.02c1.68 0 2.345.75243 2.345 1.76757 0 1.01513-.665 1.76757-2.345 1.76757z"/><path d="m116.351 18.1168c-1.044.3989-2.183.4845-3.275.2464.204-.1816.405-.3664.596-.5643 2.741-2.9189 3.516-7.2616 2.177-10.97187-1.398-3.84649-5.07-6.460543-9.192-6.8043266-4.122-.3437834-8.3121 1.6897266-10.3067 5.2962166-2.0854 3.76865-1.6962 8.75678 1.1449 12.04218 2.4518 2.8508 6.3048 4.0411 9.9148 3.5384l.159.1524c1.997 1.8876 5.247 2.9351 8.02 2.9351l1.142-5.5654c.009-.0491.005-.0999-.012-.1468-.018-.0469-.047-.0883-.086-.1196s-.086-.0514-.136-.0582c-.049-.0068-.1.0001-.146.0198zm-10.592-2.4519c-2.66 0-4.46-2.3092-4.46-5.1503 0-2.84109 1.804-5.15352 4.46-5.15352s4.456 2.30595 4.456 5.15352c0 2.8476-1.8 5.1503-4.456 5.1503z"/><path d="m27.1686.0226984c-4.1286-.3243244-8.3124 1.6897316-10.307 5.2962216-2.0854 3.76864-1.693 8.75678 1.1449 12.04218 4.0411 4.7157 11.8832 4.9038 16.1708.4346 1.3277-1.4552 2.2322-3.2457 2.6158-5.1778.3835-1.9322.2315-3.93241-.4396-5.78439-1.3913-3.85297-5.0627-6.467028-9.1849-6.8108116zm-.8983 15.6292016c-2.6563 0-4.4563-2.3092-4.4563-5.1503 0-2.84106 1.8033-5.1535 4.4563-5.1535 2.6529 0 4.4594 2.30595 4.4594 5.1535 0 2.8476-1.8032 5.1633-4.4594 5.1633z"/></g></svg>

<svg width="193" height="24" viewBox="0 0 193 24" fill="none" xmlns="http://www.w3.org/2000/svg">
<g clip-path="url(#clip0)">
<path d="M55.3621 0.282124H50.747C50.6718 0.279526 50.5969 0.291987 50.5266 0.318775C50.4563 0.345563 50.392 0.386137 50.3376 0.438112C50.2832 0.490086 50.2398 0.552409 50.2098 0.62142C50.1799 0.690431 50.164 0.764734 50.1632 0.839961V12.6356C50.1632 14.5491 49.3783 15.5546 47.6075 15.5546C45.8367 15.5546 45.0519 14.5362 45.0519 12.6356V0.839961C45.0563 0.764133 45.0444 0.688228 45.0169 0.617416C44.9894 0.546604 44.947 0.48255 44.8925 0.429612C44.8381 0.376674 44.7728 0.336098 44.7013 0.310647C44.6297 0.285196 44.5535 0.275467 44.4778 0.282124H39.8562C39.7813 0.279966 39.7067 0.292753 39.6367 0.319739C39.5668 0.346725 39.503 0.387369 39.4489 0.439299C39.3949 0.491229 39.3517 0.553406 39.322 0.622197C39.2922 0.690988 39.2765 0.765016 39.2756 0.839961V13.8129C39.2756 17.8183 42.1946 21.0389 47.5524 21.0389C52.9783 21.0389 55.9394 17.8183 55.9394 13.8129V0.839961C55.9352 0.689978 55.8724 0.547615 55.7645 0.443352C55.6566 0.33909 55.5122 0.281217 55.3621 0.282124Z" fill="#0732A2"/>
<path d="M88.8065 8.5427L85.466 7.38163C84.493 7.03135 84.3632 6.48 84.3632 6.16216C84.3632 5.64 84.8562 5.11784 85.8454 5.11784C87.341 5.13554 88.7885 5.64883 89.9611 6.5773C90.0097 6.6177 90.066 6.64795 90.1265 6.66626C90.187 6.68457 90.2505 6.69058 90.3134 6.68393C90.3763 6.67728 90.4372 6.65811 90.4926 6.62754C90.5479 6.59697 90.5966 6.55563 90.6357 6.50595L93.2303 3.23352C93.3111 3.13001 93.3494 2.99955 93.3374 2.86877C93.3253 2.73798 93.2638 2.61672 93.1654 2.52973C90.973 0.671355 88.2584 0.0227051 85.7449 0.0227051C80.9222 0.0227051 78.0519 3.01298 78.0519 6.26595C78.0519 8.81838 79.5308 11.173 82.6995 12.2432L85.6573 13.2616C87.1103 13.7546 87.3438 14.1341 87.3438 14.7438C87.3438 15.2951 86.76 15.9308 85.5989 15.9308C83.9773 15.9308 82.0314 14.9578 80.7341 13.8714C80.6878 13.8314 80.6338 13.8014 80.5755 13.7832C80.5172 13.7649 80.4558 13.7588 80.395 13.7652C80.3342 13.7715 80.2754 13.7903 80.2222 13.8203C80.1689 13.8503 80.1224 13.8908 80.0854 13.9395L77.4227 17.4324C77.3441 17.5386 77.3073 17.67 77.3192 17.8015C77.3312 17.9331 77.3911 18.0557 77.4876 18.1459C79.4108 19.813 82.2681 21.0454 85.8681 21.0454C90.4086 21.0454 93.6778 18.4314 93.6778 14.4843C93.6843 11.7665 92.0011 9.64541 88.8065 8.5427Z" fill="#0732A2"/>
<path d="M72.2303 13.0443C74.6919 11.8249 75.9665 9.91136 75.9665 7.07027C75.9665 3.47352 73.0703 0.282166 68.1827 0.282166H59.3287C59.1836 0.296737 59.0492 0.365059 58.952 0.473693C58.8548 0.582327 58.8017 0.72341 58.8033 0.869193V20.1114C58.8033 20.2507 58.8586 20.3843 58.9571 20.4829C59.0557 20.5814 59.1893 20.6368 59.3287 20.6368H64.106C64.2453 20.6368 64.3789 20.5814 64.4775 20.4829C64.576 20.3843 64.6314 20.2507 64.6314 20.1114V13.8843H66.5157L69.8919 20.1762C69.9744 20.3098 70.0879 20.4215 70.2229 20.5017C70.3579 20.5819 70.5103 20.6282 70.667 20.6368H76.1384C76.4303 20.6368 76.547 20.4324 76.4011 20.1827L72.2303 13.0443ZM67.6476 8.9546H64.6314V5.41946H67.6476C69.3276 5.41946 69.9957 6.17189 69.9957 7.18703C69.9957 8.20216 69.3276 8.9546 67.6476 8.9546Z" fill="#0732A2"/>
<path d="M14.5167 0.282171H0.648634C0.566105 0.277806 0.48354 0.290086 0.405854 0.31828C0.328169 0.346475 0.256948 0.390008 0.19643 0.44629C0.135912 0.502571 0.087334 0.57045 0.0535856 0.645889C0.0198373 0.721329 0.00160846 0.802788 -1.60294e-05 0.885416V20.0433C-0.00219355 20.1207 0.0112372 20.1978 0.0394766 20.2699C0.0677159 20.3421 0.110186 20.4078 0.164357 20.4632C0.218528 20.5185 0.283291 20.5625 0.354789 20.5923C0.426287 20.6221 0.503058 20.6372 0.580526 20.6368H5.25079C5.39582 20.6199 5.52946 20.5499 5.6259 20.4403C5.72234 20.3307 5.77473 20.1892 5.77296 20.0433V13.8584H11.6984C11.8445 13.8541 11.9852 13.8019 12.0988 13.7099C12.2125 13.6179 12.2928 13.4912 12.3275 13.3492L13.2227 9.10379C13.2417 9.04014 13.2449 8.97284 13.2323 8.90764C13.2196 8.84244 13.1914 8.78126 13.15 8.72933C13.1086 8.67741 13.0552 8.63626 12.9944 8.60942C12.9337 8.58257 12.8673 8.57081 12.8011 8.57515H5.77296V5.48433H13.5567C13.7059 5.48315 13.8506 5.43253 13.9679 5.34039C14.0853 5.24825 14.1688 5.1198 14.2054 4.97514L15.0421 0.969739C15.0662 0.888868 15.0708 0.803455 15.0555 0.72047C15.0403 0.637486 15.0057 0.559282 14.9544 0.492242C14.9032 0.425201 14.8368 0.371225 14.7608 0.334717C14.6847 0.298208 14.6011 0.280203 14.5167 0.282171Z" fill="#0732A2"/>
<path d="M191.426 5.48435C191.572 5.48001 191.713 5.42786 191.826 5.33588C191.94 5.2439 192.02 5.11718 192.055 4.97516L192.905 0.96651C192.976 0.619483 192.905 0.282184 192.405 0.282184H178.459C178.38 0.280879 178.3 0.295567 178.227 0.32538C178.153 0.355193 178.085 0.399528 178.029 0.455762C177.972 0.511997 177.928 0.578991 177.897 0.652789C177.867 0.726587 177.852 0.805692 177.853 0.885429V20.0433C177.851 20.1204 177.864 20.1973 177.892 20.2692C177.92 20.3411 177.962 20.4067 178.016 20.462C178.07 20.5173 178.134 20.5613 178.205 20.5913C178.277 20.6214 178.353 20.6368 178.43 20.6368H191.115C191.26 20.6326 191.401 20.5809 191.514 20.4896C191.628 20.3983 191.708 20.2723 191.744 20.1308L192.593 16.1189C192.668 15.7719 192.577 15.4346 192.094 15.4346H183.662V13.1027H189.542C189.688 13.0977 189.829 13.0449 189.942 12.9523C190.056 12.8598 190.136 12.7327 190.171 12.5903L191.066 8.34165C191.085 8.27815 191.088 8.21096 191.076 8.14586C191.063 8.08076 191.035 8.01972 190.993 7.968C190.952 7.91628 190.898 7.87544 190.838 7.849C190.777 7.82256 190.71 7.81132 190.644 7.81624H183.671V5.48435H191.426Z" fill="#0732A2"/>
<path d="M149.912 0.749192C149.867 0.617286 149.783 0.502089 149.672 0.418736C149.56 0.335384 149.426 0.287776 149.286 0.282166H142.943C142.803 0.287776 142.669 0.335384 142.557 0.418736C142.446 0.502089 142.362 0.617286 142.317 0.749192L136.479 20.1405C136.457 20.1961 136.449 20.2561 136.456 20.3154C136.463 20.3747 136.484 20.4314 136.518 20.4804C136.552 20.5295 136.598 20.5694 136.651 20.5967C136.704 20.6239 136.763 20.6377 136.823 20.6368H142.038C142.178 20.6238 142.312 20.5695 142.422 20.4806C142.531 20.3916 142.612 20.2722 142.654 20.1373L143.481 17.2184H148.716L149.614 20.1373C149.659 20.2719 149.742 20.3905 149.853 20.4787C149.964 20.5668 150.099 20.6206 150.24 20.6335H155.429C155.489 20.6345 155.548 20.6207 155.601 20.5934C155.654 20.5662 155.7 20.5262 155.733 20.4772C155.767 20.4281 155.789 20.3715 155.796 20.3122C155.803 20.2529 155.795 20.1928 155.773 20.1373L149.912 0.749192ZM146.085 11.8281H144.204L146.085 5.60433L147.973 11.8281H146.085Z" fill="#0732A2"/>
<path d="M134.851 0.282124H130.236C130.16 0.279526 130.086 0.291987 130.015 0.318775C129.945 0.345563 129.881 0.386137 129.826 0.438112C129.772 0.490086 129.728 0.552409 129.698 0.62142C129.669 0.690431 129.653 0.764734 129.652 0.839961V12.6356C129.652 14.5491 128.867 15.5546 127.096 15.5546C125.325 15.5546 124.541 14.5362 124.541 12.6356V0.839961C124.545 0.764133 124.533 0.688228 124.506 0.617416C124.478 0.546604 124.436 0.48255 124.381 0.429612C124.327 0.376674 124.261 0.336098 124.19 0.310647C124.118 0.285196 124.042 0.275467 123.966 0.282124H119.345C119.27 0.279966 119.195 0.292753 119.125 0.319739C119.055 0.346725 118.992 0.387369 118.938 0.439299C118.884 0.491229 118.84 0.553406 118.811 0.622197C118.781 0.690988 118.765 0.765016 118.764 0.839961V13.8129C118.764 17.8183 121.683 21.0389 127.038 21.0389C132.467 21.0389 135.428 17.8183 135.428 13.8129V0.839961C135.424 0.689978 135.361 0.547615 135.253 0.443352C135.145 0.33909 135.001 0.281217 134.851 0.282124Z" fill="#0732A2"/>
<path d="M171.272 13.0443C173.734 11.8249 175.012 9.91136 175.012 7.07027C175.012 3.47352 172.112 0.282166 167.228 0.282166H158.371C158.226 0.296737 158.091 0.365059 157.994 0.473693C157.897 0.582327 157.844 0.72341 157.845 0.869193V20.1114C157.845 20.2507 157.901 20.3843 157.999 20.4829C158.098 20.5814 158.231 20.6368 158.371 20.6368H163.148C163.287 20.6368 163.421 20.5814 163.52 20.4829C163.618 20.3843 163.673 20.2507 163.673 20.1114V13.8843H165.561L168.934 20.1762C169.016 20.3098 169.13 20.4215 169.265 20.5017C169.4 20.5819 169.552 20.6282 169.709 20.6368H175.18C175.472 20.6368 175.589 20.4324 175.443 20.1827L171.272 13.0443ZM166.693 8.9546H163.673V5.41946H166.693C168.373 5.41946 169.038 6.17189 169.038 7.18703C169.038 8.20216 168.373 8.9546 166.693 8.9546Z" fill="#0732A2"/>
<path d="M116.351 18.1168C115.307 18.5157 114.168 18.6013 113.076 18.3632C113.28 18.1816 113.481 17.9968 113.672 17.7989C116.413 14.88 117.188 10.5373 115.849 6.82703C114.451 2.98054 110.779 0.366487 106.657 0.0227034C102.535 -0.32108 98.3449 1.71243 96.3503 5.31892C94.2649 9.08757 94.6541 14.0757 97.4952 17.3611C99.947 20.2119 103.8 21.4022 107.41 20.8995L107.569 21.0519C109.566 22.9395 112.816 23.987 115.589 23.987L116.731 18.4216C116.74 18.3725 116.736 18.3217 116.719 18.2748C116.701 18.2279 116.672 18.1865 116.633 18.1552C116.594 18.1239 116.547 18.1038 116.497 18.097C116.448 18.0902 116.397 18.0971 116.351 18.1168ZM105.759 15.6649C103.099 15.6649 101.299 13.3557 101.299 10.5146C101.299 7.67351 103.103 5.36108 105.759 5.36108C108.415 5.36108 110.215 7.66703 110.215 10.5146C110.215 13.3622 108.415 15.6649 105.759 15.6649Z" fill="#0732A2"/>
<path d="M27.1686 0.0226984C23.04 -0.301626 18.8562 1.71243 16.8616 5.31892C14.7762 9.08756 15.1686 14.0757 18.0065 17.3611C22.0476 22.0768 29.8897 22.2649 34.1773 17.7957C35.505 16.3405 36.4095 14.55 36.7931 12.6179C37.1766 10.6857 37.0246 8.68549 36.3535 6.83351C34.9622 2.98054 31.2908 0.366482 27.1686 0.0226984ZM26.2703 15.6519C23.614 15.6519 21.814 13.3427 21.814 10.5016C21.814 7.66054 23.6173 5.3481 26.2703 5.3481C28.9232 5.3481 30.7297 7.65405 30.7297 10.5016C30.7297 13.3492 28.9265 15.6649 26.2703 15.6649V15.6519Z" fill="#0732A2"/>
</g>
<defs>
<clipPath id="clip0">
<rect width="192.928" height="24" fill="white"/>
</clipPath>
</defs>
</svg>
